**kern	**silbe	**harmony	**phrase	**leadinstrument	**rhyme	**timestamp	**harte
*ICvox	*	*M4/4	*	*	*	*	*M4/4
*VRlead	*	*	*	*	*	*	*
*Hstimme	*	*	*	*	*	*	*
*F:	*	*F:	*	*	*	*	*F:
*M4/4	*	*	*	*	*	*	*
*clefG2	*	*	*	*	*	*	*
r;	.	1r;	.	r	.	0	N.C.
=1	=1	=1	=1	=1	=1	=1	=1
*>Letter>A	*>Letter>A	*>Letter>A	*>Letter>A	*>Letter>A	*>Letter>A	*>Letter>A	*>Letter>A
*>Label>Chorus	*>Label>Chorus	*>Label>Chorus	*>Label>Chorus	*>Label>Chorus	*>Label>Chorus	*>Label>Chorus	*>Label>Chorus
8d	All	2B-M	newline	voice	.	0.255	B-:maj
8d	the	.	.	.	.	.	.
4d	world	.	.	.	.	.	.
8c	o-	2FM	.	voice	.	1.223	F:maj
8c	-ver,	.	.	.	.	.	.
4f	so	.	.	.	.	.	.
=2	=2	=2	=2	=2	=2	=2	=2
8d	ea-	2CM	.	voice	.	2.191	C:maj
8d	-sy	.	.	.	.	.	.
8d	to	.	.	.	.	.	.
[8c	see	.	.	.	A	.	.
4c]	_	2FM	.	voice	.	3.159	F:maj
4r	.	.	.	.	.	.	.
=3	=3	=3	=3	=3	=3	=3	=3
8d	Pe-	2B-M	.	voice	.	4.127	B-:maj
8d	-o-	.	.	.	.	.	.
8d	-ple	.	.	.	.	.	.
8d	every-	.	.	.	.	.	.
4c	-where	2FM	.	voice	.	5.095	F:maj
4c	just	.	.	.	.	.	.
=4	=4	=4	=4	=4	=4	=4	=4
8B-	wan-	2CM	.	voice	.	6.062	C:maj
8c	-na	.	.	.	.	.	.
8B-	be	.	.	.	.	.	.
[8A	free	.	.	.	A	.	.
4A]	_	2FM	.	voice	.	7.03	F:maj
4r	.	.	.	.	.	.	.
=5	=5	=5	=5	=5	=5	=5	=5
8d	Lis-	2B-M	newline	voice	.	7.998	B-:maj
8d	-ten,	.	.	.	.	.	.
4d	please	.	.	.	.	.	.
8c	lis-	2FM	.	voice	.	8.931	F:maj
8c	-ten,	.	.	.	.	.	.
8f	that's	.	.	.	.	.	.
8f	the	.	.	.	.	.	.
=6	=6	=6	=6	=6	=6	=6	=6
8f	way	2CM	.	voice	.	9.863	C:maj
8f	it	.	.	.	.	.	.
4f	should	.	.	.	.	.	.
8d	be	2FM	.	voice	A	10.796	F:maj
8c	_	.	.	.	.	.	.
4r	.	.	.	.	.	.	.
=7	=7	=7	=7	=7	=7	=7	=7
8d	Deep	2B-M	.	voice	.	11.728	B-:maj
8d	in	.	.	.	.	.	.
8d	the	.	.	.	.	.	.
[8c	val-	.	.	.	.	.	.
8c]	_	2FM	.	voice	.	12.661	F:maj
8c	-ley,	.	.	.	A	.	.
8c	peo-	.	.	.	.	.	.
8c	-ple	.	.	.	.	.	.
=8	=8	=8	=8	=8	=8	=8	=8
*M2/4	*	*M2/4	*M2/4	*M2/4	*	*M2/4	*M2/4
8B-	got	2CM	.	voice	.	13.594	C:maj
8c	to	.	.	.	.	.	.
4B-	be	.	.	.	A	.	.
=9	=9	=9	=9	=9	=9	=9	=9
*>Letter>B	*>Letter>B	*>Letter>B	*>Letter>B	*>Letter>B	*>Letter>B	*>Letter>B	*>Letter>B
*>Label>Trans	*>Label>Trans	*>Label>Trans	*>Label>Trans	*>Label>Trans	*>Label>Trans	*>Label>Trans	*>Label>Trans
*	*	*M4/4	*M4/4	*M4/4	*	*M4/4	*M4/4
4A	free	1FM	newline	trumpet	A	14.526	F:maj
4r	.	.	.	.	.	.	.
2r	.	.	.	.	.	.	.
=10	=10	=10	=10	=10	=10	=10	=10
1r	.	1CM	.	trumpet	.	16.447	C:maj
=11	=11	=11	=11	=11	=11	=11	=11
1r	.	1FM	.	trumpet	.	18.368	F:maj
=12	=12	=12	=12	=12	=12	=12	=12
1r	.	1CM	.	trumpet	.	20.29	C:maj
=13	=13	=13	=13	=13	=13	=13	=13
*>Letter>C	*>Letter>C	*>Letter>C	*>Letter>C	*>Letter>C	*>Letter>C	*>Letter>C	*>Letter>C
*>Label>Verse	*>Label>Verse	*>Label>Verse	*>Label>Verse	*>Label>Verse	*>Label>Verse	*>Label>Verse	*>Label>Verse
2r	.	1FM	newline	voice	.	22.211	F:maj
4A	You	.	.	.	.	.	.
8B-	should	.	.	.	.	.	.
[8c	see	.	.	.	A	.	.
=14	=14	=14	=14	=14	=14	=14	=14
8c]	_	1CM	.	voice	.	24.098	C:maj
8d	_	.	.	.	.	.	.
4r	.	.	.	.	.	.	.
4r	.	.	.	.	.	.	.
8f	what	.	.	.	.	.	.
8f	a	.	.	.	.	.	.
=15	=15	=15	=15	=15	=15	=15	=15
8f	love-	1Dm	.	voice	.	25.984	D:min
8e	-ly,	.	.	.	.	.	.
8f	love-	.	.	.	.	.	.
8e	-ly	.	.	.	.	.	.
8f	world	.	.	.	.	.	.
8e	this	.	.	.	.	.	.
8d	could	.	.	.	.	.	.
8d	be	.	.	.	A	.	.
=16	=16	=16	=16	=16	=16	=16	=16
4.c	_	1Am	.	voice	.	27.871	A:min
8d	_	.	.	.	.	.	.
2r	.	.	.	.	.	.	.
=17	=17	=17	=17	=17	=17	=17	=17
2r	.	1B-M	newline	voice	.	29.758	B-:maj
8e	E-	.	.	.	.	.	.
8e	-ve-	.	.	.	.	.	.
8d	-ry-	.	.	.	.	.	.
[8c	-one	.	.	.	.	.	.
=18	=18	=18	=18	=18	=18	=18	=18
8c]	_	1FM	.	voice	.	31.622	F:maj
4A	learned	.	.	.	.	.	.
8A	to	.	.	.	.	.	.
4B-	live	.	.	.	.	.	.
8A	to-	.	.	.	.	.	.
[8A	-ge-	.	.	.	.	.	.
=19	=19	=19	=19	=19	=19	=19	=19
8A]	_	1N	.	voice	.	33.487	N.C.
8G	-ther	.	.	.	b	.	.
4r	.	.	.	.	.	.	.
2r	.	.	.	.	.	.	.
=20	=20	=20	=20	=20	=20	=20	=20
8r	.	1N	.	voice	.	35.351	N.C.
8d	han	.	.	.	.	.	.
4A	_	.	.	.	.	.	.
4c	_	.	.	.	.	.	.
4d	_	.	.	.	.	.	.
=21	=21	=21	=21	=21	=21	=21	=21
2r	.	1FM	newline	voice	.	37.216	F:maj
4A	Seems	.	.	.	.	.	.
8B-	to	.	.	.	.	.	.
[8c	me	.	.	.	A	.	.
=22	=22	=22	=22	=22	=22	=22	=22
8c]	_	1CM	.	voice	.	39.129	C:maj
8d	_	.	.	.	.	.	.
4r	.	.	.	.	.	.	.
4r	.	.	.	.	.	.	.
8f	such	.	.	.	.	.	.
8f	an	.	.	.	.	.	.
=23	=23	=23	=23	=23	=23	=23	=23
8f	ea-	1Dm	.	voice	.	41.042	D:min
8e	-sy,	.	.	.	.	.	.
8f	eas-	.	.	.	.	.	.
8e	-sy	.	.	.	.	.	.
4f	thing	.	.	.	.	.	.
8d	should	.	.	.	.	.	.
8d	be	.	.	.	A	.	.
=24	=24	=24	=24	=24	=24	=24	=24
4.c	_	1Am	.	voice	.	42.955	A:min
8d	_	.	.	.	.	.	.
2r	.	.	.	.	.	.	.
=25	=25	=25	=25	=25	=25	=25	=25
8r	.	1B-M	newline	voice	.	44.868	B-:maj
8c	Uh	.	.	.	.	.	.
4f	Why	.	.	.	.	.	.
8f	can't	.	.	.	.	.	.
8e	you	.	.	.	.	.	.
8d	and	.	.	.	.	.	.
[8c	me	.	.	.	A	.	.
=26	=26	=26	=26	=26	=26	=26	=26
8c]	_	1FM	.	voice	.	46.702	F:maj
4A	learn	.	.	.	.	.	.
8A	to	.	.	.	.	.	.
4B-	love	.	.	.	.	.	.
4A	one	.	.	.	.	.	.
=27	=27	=27	=27	=27	=27	=27	=27
8A	'o-	1N	.	voice	.	48.536	N.C.
8G	-ther	.	.	.	b	.	.
4r	.	.	.	.	.	.	.
2r	.	.	.	.	.	.	.
=28	=28	=28	=28	=28	=28	=28	=28
2a	No,	1N	.	voice	.	50.37	N.C.
8g	hea-	.	.	.	.	.	.
8f	-ven	.	.	.	.	.	.
4f	now	.	.	.	.	.	.
=29	=29	=29	=29	=29	=29	=29	=29
*>Letter>A	*>Letter>A	*>Letter>A	*>Letter>A	*>Letter>A	*>Letter>A	*>Letter>A	*>Letter>A
*>Label>Chorus	*>Label>Chorus	*>Label>Chorus	*>Label>Chorus	*>Label>Chorus	*>Label>Chorus	*>Label>Chorus	*>Label>Chorus
8d	All	2B-M	newline	voice	.	52.205	B-:maj
8d	the	.	.	.	.	.	.
4d	world	.	.	.	.	.	.
8c	o-	2FM	.	voice	.	53.163	F:maj
8c	-ver,	.	.	.	.	.	.
4f	so	.	.	.	.	.	.
=30	=30	=30	=30	=30	=30	=30	=30
8g	ea-	2CM	.	voice	.	54.122	C:maj
8f	-sy	.	.	.	.	.	.
8f	to	.	.	.	.	.	.
8c	see	.	.	.	A	.	.
4r	.	2FM	.	voice	.	55.08	F:maj
4f	Uh	.	.	.	.	.	.
=31	=31	=31	=31	=31	=31	=31	=31
8d	Pe-	2B-M	.	voice	.	56.039	B-:maj
8d	-o-	.	.	.	.	.	.
8d	-ple	.	.	.	.	.	.
8d	every-	.	.	.	.	.	.
4c	-where	2FM	.	voice	.	56.997	F:maj
4c	just	.	.	.	.	.	.
=32	=32	=32	=32	=32	=32	=32	=32
8B-	wan-	2CM	.	voice	.	57.956	C:maj
8B-	-na	.	.	.	.	.	.
8B-	be	.	.	.	.	.	.
[8A	free	.	.	.	A	.	.
4A]	_	2FM	.	voice	.	58.914	F:maj
8r	.	.	.	.	.	.	.
8A	I	.	.	.	.	.	.
=33	=33	=33	=33	=33	=33	=33	=33
8d	can't	2B-M	newline	voice	.	59.873	B-:maj
8d	un-	.	.	.	.	.	.
8d	-der-	.	.	.	.	.	.
[8c	-stand	.	.	.	.	.	.
8c]	_	2FM	.	voice	.	60.83	F:maj
8c	it,	.	.	.	.	.	.
4f	so	.	.	.	.	.	.
=34	=34	=34	=34	=34	=34	=34	=34
8d	sim-	2CM	.	voice	.	61.787	C:maj
8d	-ple	.	.	.	.	.	.
8d	to	.	.	.	.	.	.
8c	me	.	.	.	A	.	.
2r	.	2FM	.	voice	.	62.744	F:maj
=35	=35	=35	=35	=35	=35	=35	=35
8d	Peo-	2B-M	.	voice	.	63.701	B-:maj
8d	-ple	.	.	.	.	.	.
8d	every-	.	.	.	.	.	.
[8c	-where	.	.	.	.	.	.
4c]	_	2FM	.	voice	.	64.658	F:maj
4a	just	.	.	.	.	.	.
=36	=36	=36	=36	=36	=36	=36	=36
*M2/4	*	*M2/4	*M2/4	*M2/4	*	*M2/4	*M2/4
8g	goy	2CM	.	voice	.	65.615	C:maj
8f	to	.	.	.	.	.	.
4f	be	.	.	.	A	.	.
=37	=37	=37	=37	=37	=37	=37	=37
*>Letter>B	*>Letter>B	*>Letter>B	*>Letter>B	*>Letter>B	*>Letter>B	*>Letter>B	*>Letter>B
*>Label>Trans	*>Label>Trans	*>Label>Trans	*>Label>Trans	*>Label>Trans	*>Label>Trans	*>Label>Trans	*>Label>Trans
*	*	*M4/4	*M4/4	*M4/4	*	*M4/4	*M4/4
4f	free	1FM	newline	trumpet	A	66.572	F:maj
4r	.	.	.	.	.	.	.
2r	.	.	.	.	.	.	.
=38	=38	=38	=38	=38	=38	=38	=38
1r	.	1CM	.	trumpet	.	68.474	C:maj
=39	=39	=39	=39	=39	=39	=39	=39
1r	.	1FM	.	trumpet	.	70.375	F:maj
=40	=40	=40	=40	=40	=40	=40	=40
1r	.	1CM	.	trumpet	.	72.277	C:maj
=41	=41	=41	=41	=41	=41	=41	=41
*>Letter>C	*>Letter>C	*>Letter>C	*>Letter>C	*>Letter>C	*>Letter>C	*>Letter>C	*>Letter>C
*>Label>Verse	*>Label>Verse	*>Label>Verse	*>Label>Verse	*>Label>Verse	*>Label>Verse	*>Label>Verse	*>Label>Verse
4.r	.	1FM	newline	voice	.	74.179	F:maj
8A	If	.	.	.	.	.	.
4A	there's	.	.	.	.	.	.
8B-	a	.	.	.	.	.	.
[8c	man	.	.	.	C	.	.
=42	=42	=42	=42	=42	=42	=42	=42
8c]	_	1CM	.	voice	.	76.073	C:maj
8d	_	.	.	.	.	.	.
4r	.	.	.	.	.	.	.
4r	.	.	.	.	.	.	.
8f	who	.	.	.	.	.	.
8f	is	.	.	.	.	.	.
=43	=43	=43	=43	=43	=43	=43	=43
8f	down	1Dm	.	voice	.	77.967	D:min
8e	and	.	.	.	.	.	.
8f	needs	.	.	.	.	.	.
8e	a	.	.	.	.	.	.
4f	hel-	.	.	.	.	.	.
8d	-ping	.	.	.	.	.	.
8d	hand	.	.	.	C	.	.
=44	=44	=44	=44	=44	=44	=44	=44
4.c	_	1Am	.	voice	.	79.861	A:min
8d	_	.	.	.	.	.	.
4r	.	.	.	.	.	.	.
8f	All	.	.	.	.	.	.
8e	it	.	.	.	.	.	.
=45	=45	=45	=45	=45	=45	=45	=45
8f	takes	1B-M	newline	voice	.	81.755	B-:maj
8e	is	.	.	.	.	.	.
8f	you	.	.	.	.	.	.
8e	to	.	.	.	.	.	.
4f	un-	.	.	.	.	.	.
8d	-der-	.	.	.	.	.	.
[8c	-stand	.	.	.	C	.	.
=46	=46	=46	=46	=46	=46	=46	=46
8c]	_	1FM	.	voice	.	83.603	F:maj
4A	and	.	.	.	.	.	.
8A	to	.	.	.	.	.	.
8B-	pull	.	.	.	.	.	.
4A	him	.	.	.	.	.	.
[8A	through	.	.	.	D	.	.
=47	=47	=47	=47	=47	=47	=47	=47
8A]	_	1N	.	voice	.	85.451	N.C.
8G	_	.	.	.	.	.	.
4r	.	.	.	.	.	.	.
2r	.	.	.	.	.	.	.
=48	=48	=48	=48	=48	=48	=48	=48
8d	Ah	1N	.	voice	.	87.299	N.C.
8d	Ah	.	.	.	.	.	.
4A	ha	.	.	.	.	.	.
4c	_	.	.	.	.	.	.
4d	_	.	.	.	.	.	.
=49	=49	=49	=49	=49	=49	=49	=49
4.r	.	1FM	newline	voice	.	89.147	F:maj
8d	It	.	.	.	.	.	.
4f	seems	.	.	.	.	.	.
8d	to	.	.	.	.	.	.
[8f	me,	.	.	.	A	.	.
=50	=50	=50	=50	=50	=50	=50	=50
8f]	_	1CM	.	voice	.	91.046	C:maj
8g	_	.	.	.	.	.	.
4r	.	.	.	.	.	.	.
8r	.	.	.	.	.	.	.
8c	we	.	.	.	.	.	.
8a	got	.	.	.	.	.	.
8a	to	.	.	.	.	.	.
=51	=51	=51	=51	=51	=51	=51	=51
8a	solve	1Dm	.	voice	.	92.946	D:min
8a	it	.	.	.	.	.	.
8a	in-	.	.	.	.	.	.
8g	-di-	.	.	.	.	.	.
8a	-vi-	.	.	.	.	.	.
8g	-du-	.	.	.	D	.	.
8f	-a-	.	.	.	.	.	.
8g	-ly	.	.	.	A	.	.
=52	=52	=52	=52	=52	=52	=52	=52
4d	_	1Am	.	voice	.	94.845	A:min
8r	.	.	.	.	.	.	.
8f	ah	.	.	.	.	.	.
8r	.	.	.	.	.	.	.
8g	ah	.	.	.	.	.	.
4r	.	.	.	.	.	.	.
=53	=53	=53	=53	=53	=53	=53	=53
8r	.	1B-M	newline	voice	.	96.744	B-:maj
8c	And	.	.	.	.	.	.
8f	I'll	.	.	.	.	.	.
8r	.	.	.	.	.	.	.
8f	do	.	.	.	.	.	.
8e	un-	.	.	.	.	.	.
8d	-to	.	.	.	.	.	.
[8c	you	.	.	.	D	.	.
=54	=54	=54	=54	=54	=54	=54	=54
8c]	_	1FM	.	voice	.	98.576	F:maj
4A	what	.	.	.	.	.	.
8A	you	.	.	.	D	.	.
8B-	do	.	.	.	D	.	.
8r	.	.	.	.	.	.	.
8A	to	.	.	.	.	.	.
8A	me	.	.	.	A	.	.
=55	=55	=55	=55	=55	=55	=55	=55
8G	_	1N	.	voice	.	100.409	N.C.
8r	.	.	.	.	.	.	.
4r	.	.	.	.	.	.	.
4r	.	.	.	.	.	.	.
4f	Said	.	.	.	.	.	.
=56	=56	=56	=56	=56	=56	=56	=56
4a	no,	1N	.	voice	.	102.241	N.C.
4a	no,	.	.	.	.	.	.
4g	no	.	.	.	.	.	.
8c	There'll	.	.	.	.	.	.
8c	be	.	.	.	.	.	.
=57	=57	=57	=57	=57	=57	=57	=57
*>Letter>A	*>Letter>A	*>Letter>A	*>Letter>A	*>Letter>A	*>Letter>A	*>Letter>A	*>Letter>A
*>Label>Chorus	*>Label>Chorus	*>Label>Chorus	*>Label>Chorus	*>Label>Chorus	*>Label>Chorus	*>Label>Chorus	*>Label>Chorus
8d	shou-	2B-M	newline	voice	.	104.073	B-:maj
8d	-tin'	.	.	.	.	.	.
8d	from	.	.	.	.	.	.
8d	the	.	.	.	.	.	.
8c	moun-	2FM	.	voice	.	105.031	F:maj
8c	-tains	.	.	.	.	.	.
4f	on	.	.	.	.	.	.
=58	=58	=58	=58	=58	=58	=58	=58
8d	out	2CM	.	voice	.	105.988	C:maj
4d	to	.	.	.	.	.	.
8d	sea	.	.	.	A	.	.
2r	.	2FM	.	voice	.	106.946	F:maj
=59	=59	=59	=59	=59	=59	=59	=59
8d	No	2B-M	.	voice	.	107.903	B-:maj
8d	two	.	.	.	.	.	.
8d	ways	.	.	.	.	.	.
8d	a-	.	.	.	.	.	.
8c	-bout	2FM	.	voice	.	108.861	F:maj
8c	it,	.	.	.	.	.	.
8c	peo-	.	.	.	.	.	.
8c	-ple	.	.	.	.	.	.
=60	=60	=60	=60	=60	=60	=60	=60
8B-	have	2CM	.	voice	.	109.818	C:maj
8c	to	.	.	.	.	.	.
4B-	be	.	.	.	.	.	.
4A	free	2FM	.	voice	A	110.775	F:maj
4r	.	.	.	.	.	.	.
=61	=61	=61	=61	=61	=61	=61	=61
8d	Ask	2B-M	newline	voice	.	111.733	B-:maj
8d	me	.	.	.	.	.	.
8d	my	.	.	.	.	.	.
8d	o-	.	.	.	.	.	.
8c	-pi-	2FM	.	voice	.	112.693	F:maj
8c	-nion,	.	.	.	.	.	.
8f	my	.	.	.	.	.	.
8f	o-	.	.	.	.	.	.
=62	=62	=62	=62	=62	=62	=62	=62
8d	-pi-	2CM	.	voice	.	113.652	C:maj
8c	-nion	.	.	.	.	.	.
4c	will	.	.	.	.	.	.
8c	be	2FM	.	voice	A	114.612	F:maj
8r	.	.	.	.	.	.	.
8c	It's	.	.	.	.	.	.
8c	a	.	.	.	.	.	.
=63	=63	=63	=63	=63	=63	=63	=63
8f	na-	2B-M	.	voice	.	115.571	B-:maj
8f	-tural	.	.	.	.	.	.
8f	si-	.	.	.	.	.	.
8f	-tu-	.	.	.	.	.	.
8f	-a-	2FM	.	voice	.	116.531	F:maj
8f	-tion	.	.	.	.	.	.
8a	for	.	.	.	.	.	.
8f	a	.	.	.	.	.	.
=64	=64	=64	=64	=64	=64	=64	=64
*M2/4	*	*M2/4	*M2/4	*M2/4	*	*M2/4	*M2/4
8f	man	2CM	.	voice	.	117.491	C:maj
8f	to	.	.	.	.	.	.
4f	be	.	.	.	A	.	.
=65	=65	=65	=65	=65	=65	=65	=65
*>Letter>B	*>Letter>B	*>Letter>B	*>Letter>B	*>Letter>B	*>Letter>B	*>Letter>B	*>Letter>B
*>Label>Trans	*>Label>Trans	*>Label>Trans	*>Label>Trans	*>Label>Trans	*>Label>Trans	*>Label>Trans	*>Label>Trans
*	*	*M4/4	*M4/4	*M4/4	*	*M4/4	*M4/4
4f	free	1FM	newline	trumpet	A	118.45	F:maj
4r	.	.	.	.	.	.	.
2r	.	.	.	.	.	.	.
=66	=66	=66	=66	=66	=66	=66	=66
1r	.	1CM	.	trumpet	.	120.341	C:maj
=67	=67	=67	=67	=67	=67	=67	=67
1r	.	1FM	.	trumpet	.	122.232	F:maj
=68	=68	=68	=68	=68	=68	=68	=68
8a-	Get	1CM	.	trumpet	.	124.122	C:maj
8a-	right	.	.	.	.	.	.
8g	on	.	.	.	.	.	.
8f	board	.	.	.	.	.	.
8d	_	.	.	.	.	.	.
[8g	now	.	.	.	.	.	.
8g]	_	.	.	.	.	.	.
8r	.	.	.	.	.	.	.
=69	=69	=69	=69	=69	=69	=69	=69
*>Letter>D	*>Letter>D	*>Letter>D	*>Letter>D	*>Letter>D	*>Letter>D	*>Letter>D	*>Letter>D
*>Label>Bridge	*>Label>Bridge	*>Label>Bridge	*>Label>Bridge	*>Label>Bridge	*>Label>Bridge	*>Label>Bridge	*>Label>Bridge
1r	.	1FM	newline	trumpet	.	126.013	F:maj
=70	=70	=70	=70	=70	=70	=70	=70
1r	.	1A-M	.	trumpet	.	127.896	A-:maj
=71	=71	=71	=71	=71	=71	=71	=71
1r	.	1D-M	.	trumpet	.	129.778	D-:maj
=72	=72	=72	=72	=72	=72	=72	=72
2r	.	1CM	.	trumpet	.	131.661	C:maj
8a-	yeah	.	.	.	.	.	.
8g	_	.	.	.	.	.	.
8f	_	.	.	.	.	.	.
8d	_	.	.	.	.	.	.
=73	=73	=73	=73	=73	=73	=73	=73
*>Letter>A	*>Letter>A	*>Letter>A	*>Letter>A	*>Letter>A	*>Letter>A	*>Letter>A	*>Letter>A
*>Label>Chorus	*>Label>Chorus	*>Label>Chorus	*>Label>Chorus	*>Label>Chorus	*>Label>Chorus	*>Label>Chorus	*>Label>Chorus
8f	Oh,	2B-M	newline	voice	.	133.543	B-:maj
8f	what	.	.	.	.	.	.
8d	a	.	.	.	.	.	.
[8f	fee-	.	.	.	.	.	.
8f]	_	2FM	.	voice	.	134.502	F:maj
8d	-lin's	.	.	.	.	.	.
4a	just	.	.	.	.	.	.
=74	=74	=74	=74	=74	=74	=74	=74
8a	come	2CM	.	voice	.	135.462	C:maj
8a	o-	.	.	.	.	.	.
8g	-ver	.	.	.	.	.	.
[8f	me	.	.	.	A	.	.
8f]	_	2FM	.	voice	.	136.421	F:maj
8r	.	.	.	.	.	.	.
8f	It's	.	.	.	.	.	.
8f	e-	.	.	.	.	.	.
=75	=75	=75	=75	=75	=75	=75	=75
8f	-nough	2B-M	.	voice	.	137.38	B-:maj
8f	to	.	.	.	.	.	.
8f	move	.	.	.	.	.	.
8f	a	.	.	.	.	.	.
8e	moun-	2FM	.	voice	.	138.339	F:maj
8f	-tain,	.	.	.	.	.	.
8a	make	.	.	.	.	.	.
8a	a	.	.	.	.	.	.
=76	=76	=76	=76	=76	=76	=76	=76
4g	blind	2CM	.	voice	.	139.299	C:maj
4f	man	.	.	.	.	.	.
4f	see	2FM	.	voice	A	140.258	F:maj
4r	.	.	.	.	.	.	.
=77	=77	=77	=77	=77	=77	=77	=77
8d	Eve-	2B-M	newline	voice	.	141.217	B-:maj
8d	-ry-	.	.	.	.	.	.
8d	-bo-	.	.	.	.	.	.
8d	-dy's	.	.	.	.	.	.
8c	dan-	2FM	.	voice	.	142.16	F:maj
8c	-cin',	.	.	.	.	.	.
8f	come	.	.	.	.	.	.
[8d	on,	.	.	.	.	.	.
=78	=78	=78	=78	=78	=78	=78	=78
8d]	_	2CM	.	voice	.	143.102	C:maj
8d	let's	.	.	.	.	.	.
4d	go	.	.	.	.	.	.
4c	see	2FM	.	voice	A	144.045	F:maj
8r	.	.	.	.	.	.	.
8c	It's	.	.	.	.	.	.
=79	=79	=79	=79	=79	=79	=79	=79
8d	peace	2B-M	.	voice	.	144.987	B-:maj
8d	in	.	.	.	.	.	.
8d	the	.	.	.	.	.	.
[8c	val-	.	.	.	.	.	.
8c]	_	2FM	.	voice	.	145.93	F:maj
8c	-ley,	.	.	.	A	.	.
8a	now	.	.	.	.	.	.
8a	they	.	.	.	.	.	.
=80	=80	=80	=80	=80	=80	=80	=80
*M2/4	*	*M2/4	*M2/4	*M2/4	*	*M2/4	*M2/4
8g	want	2CM	.	voice	.	146.872	C:maj
8f	to	.	.	.	.	.	.
4f	go	.	.	.	.	.	.
=81	=81	=81	=81	=81	=81	=81	=81
*>Letter>B	*>Letter>B	*>Letter>B	*>Letter>B	*>Letter>B	*>Letter>B	*>Letter>B	*>Letter>B
*>Label>Trans	*>Label>Trans	*>Label>Trans	*>Label>Trans	*>Label>Trans	*>Label>Trans	*>Label>Trans	*>Label>Trans
*	*	*M4/4	*M4/4	*M4/4	*	*M4/4	*M4/4
4f	free	1FM	newline	trumpet	A	147.815	F:maj
4r	.	.	.	.	.	.	.
2r	.	.	.	.	.	.	.
=82	=82	=82	=82	=82	=82	=82	=82
1r	.	1CM	.	trumpet	.	149.736	C:maj
=83	=83	=83	=83	=83	=83	=83	=83
1r	.	1FM	.	trumpet	.	151.656	F:maj
=84	=84	=84	=84	=84	=84	=84	=84
1r	.	1CM	.	trumpet	.	153.577	C:maj
=85	=85	=85	=85	=85	=85	=85	=85
*>Letter>B2	*>Letter>B2	*>Letter>B2	*>Letter>B2	*>Letter>B2	*>Letter>B2	*>Letter>B2	*>Letter>B2
*>Label>Outro	*>Label>Outro	*>Label>Outro	*>Label>Outro	*>Label>Outro	*>Label>Outro	*>Label>Outro	*>Label>Outro
1r	.	1FM	newline	guitar	.	155.498	F:maj
=86	=86	=86	=86	=86	=86	=86	=86
1r	.	1CM	.	guitar	.	157.4	C:maj
=87	=87	=87	=87	=87	=87	=87	=87
1r	.	1FM	.	guitar	.	159.302	F:maj
=88	=88	=88	=88	=88	=88	=88	=88
1r	.	1CM	.	guitar	.	161.204	C:maj
=89	=89	=89	=89	=89	=89	=89	=89
1r	.	1FM	newline	guitar	.	163.106	F:maj
=90	=90	=90	=90	=90	=90	=90	=90
1r	.	1CM	.	guitar	.	164.99	C:maj
=91	=91	=91	=91	=91	=91	=91	=91
1r	.	1FM	.	guitar	.	166.874	F:maj
=92	=92	=92	=92	=92	=92	=92	=92
1r	.	1CM	.	guitar	.	168.758	C:maj
=93	=93	=93	=93	=93	=93	=93	=93
*>Label>>Fadeout	*>Label>>Fadeout	*>Label>>Fadeout	*>Label>>Fadeout	*>Label>>Fadeout	*>Label>>Fadeout	*>Label>>Fadeout	*>Label>>Fadeout
1r	.	1FM	newline	guitar	.	170.642	F:maj
=94	=94	=94	=94	=94	=94	=94	=94
1r	.	1CM	.	guitar	.	171.803	C:maj
=95	=95	=95	=95	=95	=95	=95	=95
1r	.	1FM	.	guitar	.	172.965	F:maj
=96	=96	=96	=96	=96	=96	=96	=96
1r	.	1CM	.	guitar	.	174.126	C:maj
=97	=97	=97	=97	=97	=97	=97	=97
1r	.	1FM	.	guitar	.	175.287	F:maj
=98	=98	=98	=98	=98	=98	=98	=98
1r	.	1CM	.	guitar	.	176.448	C:maj
r;	.	1r;	.	r	.	177.609	N.C.
r;	.	1r;	.	r	.	181.682	N.C.
*-	*-	*-	*-	*-	*-	*-	*-
!!!BillboardChartDate: 1968/07/20
!!!BillboardPeak: 1
!!!BillboardWeeksOnChart: 14
!!!COC: The Rascals
!!!ENC: Nathaniel Condit-Schultz
!!!EST: Awating manual error checking and editing.
!!!OTL: People Got To Be Free
!!!RDF**chordsym: original McGill chord annotation + (implied pitch class set, with bass pitch in first position)
!!!RDF**harmony: **recip + pitch class of root + harmonic quality
!!!RDF**leadinstrument: original McGill primary instrumentation annotation
!!!RDF**phrase: newline = linebreak in original McGill transcription
!!!RDF**timestamp: McGill audio timestamp in seconds
!!!RDT: 2017/01/12/
!!!SampleActualRank: 64
!!!SampleID#: 0191
!!!SampleTargetRank: 66
